tools/download-figma-icons/icons/outlined-large/life.svg

<svg width="64" height="64" viewBox="0 0 64 64" fill="none" xmlns="http://www.w3.org/2000/svg">
<path fill-rule="evenodd" clip-rule="evenodd" d="M51.5528 49.1095C50.8658 45.4075 48.5288 39.2555 40.7798 35.1545C42.7708 33.0105 43.9998 30.1495 43.9998 27.0005C43.9998 20.3825 38.6168 15.0005 31.9998 15.0005C25.3828 15.0005 19.9998 20.3825 19.9998 27.0005C19.9998 30.1495 21.2288 33.0105 23.2208 35.1535C15.4718 39.2555 13.1348 45.4065 12.4468 49.1075C8.43776 44.5325 5.99976 38.5465 5.99976 32.0005C5.99976 17.6635 17.6628 6.00049 31.9998 6.00049C46.3368 6.00049 57.9998 17.6635 57.9998 32.0005C57.9998 38.5475 55.5628 44.5335 51.5528 49.1095ZM31.9998 36.0005C27.0368 36.0005 22.9998 31.9635 22.9998 27.0005C22.9998 22.0375 27.0368 18.0005 31.9998 18.0005C36.9628 18.0005 40.9998 22.0375 40.9998 27.0005C40.9998 31.9635 36.9628 36.0005 31.9998 36.0005ZM15.1628 51.7885C15.1858 50.0755 15.8368 41.8485 25.7698 37.2365C27.5878 38.3475 29.7168 39.0005 31.9998 39.0005C34.2828 39.0005 36.4108 38.3475 38.2298 37.2365C48.1648 41.8505 48.8128 50.0815 48.8358 51.7905C44.2958 55.6585 38.4178 58.0005 31.9998 58.0005C25.5808 58.0005 19.7028 55.6575 15.1628 51.7885ZM31.9998 3.00049C16.0098 3.00049 2.99976 16.0095 2.99976 32.0005C2.99976 47.9905 16.0098 61.0005 31.9998 61.0005C47.9898 61.0005 60.9998 47.9905 60.9998 32.0005C60.9998 16.0095 47.9898 3.00049 31.9998 3.00049Z" fill="black"/>
</svg>

<svg width="64" height="64" viewBox="0 0 64 64" fill="none" xmlns="http://www.w3.org/2000/svg"><path fill-rule="evenodd" clip-rule="evenodd" d="M51.553 49.11c-.687-3.703-3.024-9.855-10.773-13.956C42.77 33.01 44 30.15 44 27c0-6.617-5.383-12-12-12s-12 5.383-12 12c0 3.15 1.229 6.01 3.22 8.154-7.748 4.101-10.085 10.252-10.773 13.953C8.437 44.532 6 38.547 6 32.002 6 17.664 17.663 6 32 6s26 11.662 26 26c0 6.547-2.437 12.532-6.447 17.108ZM32 36c-4.963 0-9-4.037-9-9 0-4.962 4.037-9 9-9s9 4.038 9 9c0 4.963-4.037 9-9 9ZM15.163 51.788c.023-1.712.674-9.94 10.607-14.551A11.909 11.909 0 0 0 32 39c2.283 0 4.41-.654 6.23-1.764C48.165 41.85 48.813 50.08 48.836 51.79 44.296 55.659 38.418 58 32 58c-6.42 0-12.297-2.343-16.837-6.212ZM32 3C16.01 3 3 16.01 3 32s13.01 29 29 29 29-13.01 29-29S47.99 3 32 3Z" fill="currentColor"/></svg>
